!!!ONB: MCCC : IJH0430_04 : Extracted Monophonic Melody
!!!COM: Haydn, Joseph
!!!OPR: String Quartet in D major
!!!OMV: 4
!!!SCT: Hob.III:49 ; Op.50 No.6
!!!ODT: 1787///
**kern
*thru
*k[f#c#]
*D:
*clefG
*M2/4
16a
16a
=1
16a
16a
16a
16a
16a
16a
16a
16a
=2
4g
8f#
8e
=3
8d
8dd
8b
8g#
=4
8a
8A
8r
16ee
16ee
=5
16ee
16ee
16ee
16ee
16ee
16ee
16ee
16ee
=6
4dd
8cc#
8b
=7
8a
8aa
8gg
8cc#
=8
8dd
8d
8r
16d
16d
=9
16d
16d
16d
16d
16d
16d
16d
16d
=10
8G
8b
8a
16d
16d
=11
16d
16d
16d
16d
16d
16d
16d
16d
=12
8A
8g
8f#
16d
16d
=13
16d
16d
16d
16d
16d
16d
16d
16d
=14
8G
8b
8a
16d
16d
=15
16d
16d
16d
16d
16d
16d
16d
16d
=16
8A
8g
8f#
16d
16c#
=17
16d
16A
16f#
16e
16f#
16d
16a
16g
=18
16a
16f#
16dd
16cc#
16dd
16a
16ff#
16ee
=19
16ff#
16dd
16aa
16ff#
16ddd
16aa
16ff#
16dd
=20
16a
16aa
16ccc#
16aa
16ddd
16aa
16ff#
16dd
=21
16a
16aa
16ccc#
16aa
16ddd
16aa
16ff#
16dd
=22
4a
8r
16ee
16ee
=23
16ee
16ee
16ee
16ee
16ee
16ee
16ff
16ee
=24
16ee
16ee
16dd#
16ee
16ee
16ee
16dd
16ee
=25
16cc
16ee
16b
16ee
16cc
16ee
16a
16ee
=26
16g#
16b
16ee
16gg#
8bb
16ee
16ee
=27
16ee
16ee
16ee
16ee
16ee
16ee
16ff
16ee
=28
16ee
16ee
16dd#
16ee
16ee
16ee
16dd
16ee
=29
16cc
16ee
16b
16ee
16cc
16ee
16a
16ee
=30
16g#
16b
16ee
16gg#
16bb
16gg#
16aa
16ff#
=31
16gg#
16ee
16gg#
16aa
16bb
16gg#
16aa
16ff#
=32
16gg#
16ee
16gg#
16aa
16bb
16gg#
16aa
16ff#
=33
16gg#
16ee
16aa
16ee
16bb
16ee
16ccc#
16ee
=34
16ddd
16bb
16gg#
16ee
16dd
16b
16g#
16e
=35
16d
16d
16d
16d
16d
16d
16d
16d
=36
4d
8r
16gg#
16aa
=37
16gg#
16aa
16bb
16aa
16bb
16aa
16gg#
16aa
=38
16gg#
16aa
16bb
16aa
16bb
16aa
16gg#
16aa
=39
16gg#
16aa
16bb
16aa
16bb
16aa
16ddd
16ccc#
=40
16bb
16aa
16fff#
16eee
16ddd
16ccc#
16aaa
16ggg#
=41
16fff#
16eee
8cccc#
8cccc#
8cccc#
=42
4cccc#
8r
16c#
16A
=43
16d
16A
16e
16A
16f#
16A
16g#
16A
=44
8a
8b
8cc#
8dd
=45
8ee
8ff#
8gg#
8aa
=46
2e
=47
2bb
=48
4aa
8r
8ccc#
=49
4ccc#
16bb
16aa
16gg#
16ff#
=50
4ee#
8r
8ccc#
=51
4ccc#
16bb
16aa
16gg#
16ff#
=52
4ee#
8r
8ccc#
=53
4ccc#
16bb
16aa
16gg#
16ff#
=54
8.ee
32ff#
32ee
8dd
8cc#
=55
8.b
32cc#
32dd
8cc#
8b
=56
4a
4r
=57
2r
=58
8r
16ddd
16ccc#
8ccc#
8r
=59
2r
=60
8r
16ddd
16ccc#
8ccc#
8ccc#
=61
4ccc#
16bb
16aa
16gg#
16ff#
=62
8.ee
32ff#
32ee
8dd
8cc#
=63
2b
=64
2b[
=65
2b]
=66
4.b
16a
16b
=67
2cc[
=68
2cc]
=69
4b
4dd[
=70
4dd]
4cc#
=71
8b
16ee#
16ff#
16ee#
16ff#
16ee
16dd
=72
16cc#
16b
16a#
16b
16a#
16b
16dd
16b
=73
4.a
8b
=74
8a
8aa
8gg#
8gg
=75
8ff#
8ff
8ee
8dd#
=76
8ee
16dd
16b
16cc#
16a
16b
16g#
=77
8a
8a
8b
8cc#
=78
8dd
8dd#
8ee
8ff#
=79
8ee
16dd
16b
16cc#
16a
16b
16g#
=80
8a
16g#
16a
16g#
16a
16g#
16a
=81
8cc#
16b#
16cc#
16b#
16cc#
16b#
16cc#
=82
8ee
16dd#
16ee
16dd#
16ee
16dd#
16ee
=83
4gg
4r
=84
4.r
16d
16d
=85
16d
16d
16d
16d
16d
16d
16d
16d
=86
4c
8B
8A
=87
8G
8g
8e
8c#
=88
4d
8r
16a
16a
=89
16a
16a
16a
16a
16a
16a
16a
16a
=90
4g
8f#
8e
=91
8d
8dd
8cc
8f#
=92
4g
8r
16b
16b
=93
16b
16b
16b
16b
16b
16b
16b
16b
=94
4a
8g
8f#
=95
16e
16g
16b
16ee
16gg
16bb
16aa
16ff#
=96
16ee
16b
16ee
16ff#
16gg
16bb
16gg
16ff#
=97
16ee
16bb
16gg
16ff#
16ee
16bb
16gg
16ff#
=98
16ee
16bb
16gg
16ff#
16ee
16bb
16gg
16ff#
=99
16ee
16ff#
16gg
16ff#
16ee
16dd
16cc#
16b
=100
4f#
8r
16a#
16b
=101
16a#
16b
16cc#
16b
16cc#
16b
16a#
16b
=102
16a#
16b
16cc#
16b
16cc#
16b
16b#
16cc#
=103
16b#
16cc#
16dd
16cc#
16dd
16cc#
16b#
16cc#
=104
16cc
16cc#
16dd
16cc#
16dd
16cc#
16gg
16ff#
=105
16gg
16ff#
16gg
16ff#
16gg
16ff#
16gg
16ff#
=106
16gg
16ff#
16gg
16ff#
16gg
16ff#
16gg
16ff#
=107
8ddd
4bb
8ff#[
=108
8ff#]
4dd
8b
=109
16ee
16ee
16gg
16ee
16ee
16ee
16dd
16ee
=110
16cc#
16ee
16ee
16ee
16cc#
16ee
16b
16ee
=111
16a#
16ee
16cc#
16ee
16ee
16ee
16cc#
16ee
=112
16a#
16ee
16cc#
16ee
16ee
16ee
16cc#
16ee
=113
8ddd
4bb
8ff#[
=114
8ff#]
4dd
8b
=115
16a
16a
16cc
16a
16a
16a
16g
16a
=116
16f#
16a
16a
16a
16f#
16a
16e
16a
=117
16d#
16a
16f#
16a
16a
16a
16f#
16a
=118
16d#
16a
16f#
16a
16a
16a
16f#
16a
=119
16G
16B
16e
16g
16b
16ee
16gg
16bb
=120
16G
16B
16e
16g
16b
16ee
16gg
16bb
=121
16G
16B
16d
16f
16g
16b
16dd
16ee
=122
16ff
16dd
16ddd
16ccc
16bb
16aa
16gg
16ff
=123
16ee
16ee
16ee
16ee
16ee
16ee
16ff
16ee
=124
16ee
16ee
16dd#
16ee
16ee
16ee
16ff
16ee
=125
16ee
16ee
16dd#
16ee
16ee
16ee
16ff
16ee
=126
16ee
16ee
16dd#
16ee
16ee
16ee
16dd
16ee
=127
16cc#
16a
16cc#
16ee
16aa
16ee
16aa
16ccc#
=128
16eee
16ccc#
16aa
16gg
16ee
16cc#
16a
16g
=129
16f#
16d
16d
16d
16d
16d
16e-
16d
=130
16d
16d
16c#
16d
16d
16d
16e-
16d
=131
16d
16d
16c#
16d
16d
16d
16e-
16d
=132
16d
16d
16c#
16d
16d
16d
16c
16d
=133
16B
16G
16B
16d
16g
16b
16dd
16ff#
=134
16gg
16aa
16bb
16aa
16gg
16ff#
16ee
16dd
=135
16cc#
16a
16aa
16a
16gg#
16a
16gg
16a
=136
16ff#
16a
16ff
16a
16ee
16a
16dd
16a
=137
16cc#
16a
16a
16a
16a
16a
16a
16a
=138
16a
16a
16a
16a
16a
16a
16a
16a
=139
16a
16a
16b-
16a
16a
16a
16g#
16a
=140
16a
16a
16b-
16a
16a
16a
16g#
16a
=141
16a
16a
16b-
16a
16a
16a
16g#
16a
=142
16a
16a
16g#
16a
16a
16a
16g#
16a
=143
4a
8r
16a
16a
=144
16a
16a
16a
16a
16a
16a
16a
16a
=145
4g
8f#
8e
=146
8d
8dd
8b
8g#
=147
8a
8A
8r
16ee
16ee
=148
16ee
16ee
16ee
16ee
16ee
16ee
16ee
16ee
=149
4dd
8cc#
8b
=150
8a
8aa
8gg
8cc#
=151
8dd
8d
8r
16d
16d
=152
16d
16d
16d
16d
16d
16d
16d
16d
=153
8G
8b
8a
16d
16d
=154
16d
16d
16d
16d
16d
16d
16d
16d
=155
8A
8g
8f#
16d
16d
=156
16d
16d
16d
16d
16d
16d
16d
16d
=157
8G
8b
8a
16d
16d
=158
16d
16d
16d
16d
16d
16d
16d
16d
=159
8A
8g
8f#
16d
16c#
=160
16d
16A
16f#
16e
16f#
16d
16a
16g
=161
16a
16f#
16dd
16cc#
16dd
16a
16ff#
16ee
=162
16ff#
16dd
16aa
16ff#
16ddd
16aa
16ff#
16dd
=163
16a
16aa
16ccc#
16aa
16ddd
16aa
16ff#
16dd
=164
16a
16aa
16ccc#
16aa
16ddd
16aa
16ff#
16dd
=165
4a
8r
16cc#
16dd
=166
16cc#
16dd
16ee
16dd
16ee
16dd
16cc#
16dd
=167
16cc#
16dd
16ee
16dd
16ee
16dd
16cc#
16dd
=168
16cc#
16dd
16ee
16dd
16ee
16dd
16gg
16ff#
=169
16ee
16dd
16bb
16aa
16gg
16ff#
16ddd
16ccc#
=170
16bb
16aa
8fff#
8fff#
8fff#
=171
4fff#
8r
16f#
16d
=172
16g
16d
16a
16d
16b
16d
16cc#
16d
=173
8dd
8ee
8ff#
8gg
=174
8aa
8bb
8ccc#
8ddd
=175
2a
=176
2ee
=177
4dd
8r
8ff#
=178
4ff#
16ee
16dd
16cc#
16b
=179
4a#
8r
8ff#
=180
4ff#
16ee
16dd
16cc#
16b
=181
4a#
8r
8ff#
=182
4ff#
16ee
16dd
16cc#
16b
=183
8.a
32b
32a
8g
8f#
=184
8.e
32f#
32g
8f#
8e
=185
4d
4r
=186
2r
=187
8r
16gg
16ff#
8ff#
8r
=188
2r
=189
8r
16gg
16ff#
8ff#
8fff#
=190
4fff#
16eee
16ddd
16ccc#
16bb
=191
8.aa
32bb
32aa
8gg
8ff#
=192
2ee
=193
2ee[
=194
2ee]
=195
4.ee
16dd
16ee
=196
2ff[
=197
2ff]
=198
4ee
4gg
=199
4gg
4ff#
=200
8ee
16aa#
16bb
16aa#
16bb
16aa
16gg
=201
16ff#
16ee
16dd#
16ee
16dd#
16ee
16gg
16ee
=202
4.dd
8ee
=203
8dd
8ddd
8ccc#
8ccc
=204
8bb
8bb-
8aa
8gg#
=205
8aa
16gg
16ee
16ff#
16dd
16ee
16cc#
=206
8dd
8dd
8ee
8ff#
=207
8gg
8gg#
8aa
8bb
=208
8aa
16gg
16ee
16ff#
16dd
16ee
16cc#
=209
4dd
8r
16a
16a
=210
16a
16a
16a
16a
16a
16a
16a
16a
=211
4g
8f#
8e
=212
8d
8dd
8b
8g#
=213
8a
8A
8r
16ee
16ee
=214
16ee
16ee
16ee
16ee
16ee
16ee
16ee
16ee
=215
4dd
8cc#
8b
=216
8a
8aa
8gg
8cc#
=217
8dd
8d
8r
16d
16d
=218
16d
16d
16d
16d
16d
16d
16d
16d
=219
8G
8b
8a
16d
16d
=220
16d
16d
16d
16d
16d
16d
16d
16d
=221
8A
8g
8f#
8r
=222
2r
=223
8r
16bb
16ccc#
8ddd
8r
=224
2r
=225
8r
16gg
32ff#
32gg
8ff#
8r
=226
8r
16gg
32ff#
32gg
8ff#
8r
=227
8r
16gg
32ff#
32gg
8ff#
16gg
32ff#
32gg
=228
8ff#
8gg
8ff#
16gg
32ff#
32gg
=229
8ff#
8r
4bb[
=230
4bb]
16aa
16gg
16ff#
16ee
=231
4dd
4r
=232
2r
=233
4.r
16aa
16aa
=234
16aa
16aa
16aa
16aa
16aa
16aa
16aa
16aa
=235
4gg
8ff#
16a
16a
=236
16a
16a
16a
16a
16a
16a
16a
16a
=237
2g[
=238
2g]
=239
4f#
8r
16f#
16f#
=240
16f#
16f#
16f#
16f#
16f#
16f#
16f#
16f#
=241
4f#
8r
16f#
16f#
=242
16f#
16f#
16f#
16f#
16f#
16f#
16f#
16f#
=243
4f#
4r
==
*-
